X:1
T:Title
%%score { 1 | 2 }
L:1/8
Q:1/4=100
M:6/8
K:C
V:1 treble nm="Grand Piano"
V:2 bass 
V:1
 G2 G A2 E | [CG]3 [B,D]3 | F2 F G2 A | E6 | G2 [EG] [FA]2 [FB] | [Ec]3 G3 | A2 A [GB]2 [^Fc] | %7
w: D.~B.~Towner * * *|||||||
 [Fd]6 | [EG]2 [EG] [FA]2 [CE] | [CG]3 [Ec]3 | [Gc]2 [Gc] [Gd]2 [Gd] | [Ge]6 | %12
w: |||||
 [Ec]2 [Ec] [GB]2 [FA] | [EG]3 c3 | B2 G A2 G | [Ec]6 | [Ec] [Ec]2 [FB] [FB]2 | A2 c B2 A | [EG]6 | %19
w: |||||||
 [Gc] [Gc]2 [FB] [FB]2 | [FA]2 [FA] [FB]2 [Ec] | d6 | e2 e d2 B | [Ed]3 [Ec]3 | %24
w: |||||
 [Ec]2 [Ec] [GB]2 [FA] | [EG]6 | [FA]2 [GB] [Ac]2 [FA] | [EG] [Ge]2- [Ge]3 | d3 B3 | [Ec]6 |] %30
w: ||||||
V:2
 [C,E,C]2 [C,E,C] [C,F,C]2 [C,G,C] | [G,,E,]3 [G,,G,]3 | [G,B,]2 [G,B,] [G,B,]2 [G,B,] | [C,G,C]6 | %4
 [C,E,C]2 [C,G,] [C,C]2 [C,A,] | [C,G,]3 [E,G,C]3 | [D,^F,C]2 [D,F,D] [D,G,]2 [D,A,] | [G,B,]6 | %8
 [C,C]2 [C,C] [C,C]2 [C,G,] | [C,E,]3 [C,G,]3 | [E,G,]2 [E,G,] [D,B,]2 [D,B,] | [C,C]6 | %12
 [C,G,]2 [C,G,] [C,C]2 [C,C] | [C,C]3[K:treble] [A,CE]3 | [G,DF]2 [G,DF] [G,B,F]2 [G,F] | [C,G,]6 | %16
 [C,G,] [C,G,]2 [D,G,] [D,G,]2 | [G,B,F]2 [G,A,F] [G,F]2 [G,B,F] | [C,C]6 | %19
 [E,C] [E,C]2 [D,G,] [D,G,]2 | [B,,G,]2 [B,,G,] [G,,G,]2 [C,G,] | [G,B,G]6 | %22
 [CG]2 [CG] [G,B,F]2 [G,F] | [C,G,]3 [C,G,]3 | [C,G,]2 [C,G,] [C,C]2 [C,C] | [C,C]6 | %26
 [F,C]2 [F,C] [F,C]2 [F,C] | [C,C] [C,C]2- [C,C]3 | [G,B,F]3 [G,F]3 | [C,G,]6 |] %30

